X:1
T:Title
%%score { ( 1 4 ) | ( 2 3 ) }
L:1/8
Q:1/4=100
M:2/4
K:Ab
V:1 treble nm="Grand Piano"
V:4 treble 
V:2 bass 
V:3 bass 
V:1
 [Ec]>B [CA]>G | [CA]2 [CE]2 | [Ec]>B [CA]>G | [CA]2 [CE]2 | E>F G>A | B2 c2 | d>d c>_c | [Ec]4 | %8
w: ????~???? * * *||||||||
 [=Ec]2 A>G | A2 E2 | c>B [A,EA]2 | [A,FA]2 [G,B,E]2 | G,>F G>A | B>c [Fe]2 | [EAc]2 [DGB]2 | %15
w: |||||||
 [CEA]4 | c>c c>c | e4 | d>c B>A | [Fd]4 | [Fd]2 B>A | G2 E2 | E>F E>D | C4 | c>c c>c | e4 | %26
w: |||||||||||
 d>c B>A | [Fd]4 | [Fd]2 [B,FB]2 | [B,EG]2 E2 | G>A B>c | [CA]4 |] %32
w: ||||||
V:2
 z z/ D/ z z/ B,/ | [A,,E,]2 [A,,A,]2 | z z/ D/ z z/ B,/ | [A,,E,]2 [A,,A,]2 | %4
 [E,G,B,]2 [B,E]->[F,B,E] | [G,B,E]2 [A,E]2 | F>F[K:bass] E>=D | [A,,A,]4 | %8
 z z/[K:treble] B/[K:bass] C,2 | [F,CF]2 [G,B,]2 | [A,E]2 z z/ G/ | D,2 E,2 | %12
 z z/ A,/ [B,E]->[F,B,E] | [G,B,E]2 z z/[K:treble] d/ | E,2 E,2 | A,,4 | %16
 [A,E]>[A,E][K:treble] [A,E]>[A,E] | [G,B,E]4 | [A,F]>[A,E][K:bass] [A,D]>[A,C] | [D,A,]4 | %20
 z z/[K:treble] c/[K:bass] D,2 | [E,B,E]2 [E,G,]2 | [E,G,B,]2 [E,G,]2 | [A,,E,A,]4 | %24
 [A,E]>[A,E] [A,E]>[A,E] | [G,B,E]4 | [A,F]>[K:bass][A,E] [A,D]>[A,C] | [D,A,]4 | %28
 z z/[K:treble] c/[K:bass] z z/ A/ | z2 G,2 | [E,B,E]2 D>E | [A,,E,A,]4 |] %32
V:3
 [A,,A,]2 E,2 | x4 | [A,,A,]2 E,2 | x4 | z2 E,2 | x4 | A,2[K:bass] [E,G,]2 | x4 | %8
 [C,G,]2[K:treble][K:bass] z2 | x4 | z2 C,2 | x4 | E,2 E,2 | z2 [D,B,]2[K:treble] | x4 | x4 | %16
 x2[K:treble] x2 | x4 | x2[K:bass] x2 | x4 | [B,,B,]2[K:treble][K:bass] z2 | x4 | x4 | x4 | x4 | %25
 x4 | x3/2[K:bass] x5/2 | x4 | [B,,B,]2[K:treble][K:bass] D,2 | E,4 | z2 [E,G,]2 | x4 |] %32
V:4
 x4 | x4 | x4 | x4 | x4 | x4 | x4 | x4 | z2 [C=E]2 | x4 | x4 | x4 | E2 z2 | x4 | x4 | x4 | x4 | %17
 x4 | x4 | x4 | z2 [B,F]2 | x4 | x4 | x4 | x4 | x4 | x4 | x4 | x4 | x4 | x4 | x4 |] %32

